X: 4122
T: Blowzabella
R: jig
M: 6/8
K: Gmajor
|:d2c BAG|c2A B2G|d2c BAG|A2d G3:|
|:g2 d BAB|cBA BAG|g2d BAB|cBA G3:|
|:BAB cBc|d3 d2c|BcB ABA|G3 G2 A:|
|:B2G B2G|ABA B2G|B2G B2G|ABA G3:|

